X:1
T:La seduzione
T:Giuseppe Verdi (1813-1901)
T:Luigi Balestra (1808 - 1863)
T:La seduzione
C:Giuseppe Verdi
C:(1813-1901)
Z:Luigi Balestra
Z:(1808 - 1863)
%%score 1 { 2 | ( 3 4 ) }
L:1/8
Q:1/4=45
M:3/8
K:C
V:1 treble-8 nm="Veu"
V:2 treble nm="Piano"
V:3 bass 
V:4 bass 
V:1
"^Andantino" z3 | z z E3/4 F/4 | G2 ^F3/4 G/4 | A B c | c2 G | e2 (d/c/) | c B A | A G F | %8
w: |E- ra|bel- la co-|m'an- giol del|cie- lo,|In- no- *|cen- te de-|gl'an- ni sul|
 (E(E/)F/G/{/B}A/) | G z E3/4 F/4 | G2 ^F3/4 G/4 |!<(! A B (d/c/)!<)! |!>(! c2 G!>)! | %13
w: fio- * * * *|re, Ed il|pal- pi- to|pri- mo d'a- *|mo- re|
!<(! (A>B) (c/d/)!<)! |!>(! e2 f/ e/!>)! | (e/d/) (A/c/) (B/d/) | c2 z | z z G3/4 c/4 | %18
w: Un _ cru- *|de- le nel|cor _ le _ de- *|stò.|I- ne-|
 !>!c !>!B z/ B/ | (A(A/)B/4c/4) B3/4 A/4 | (B/>A/) G2 | z z G3/4 G/4 |!<(! G2 c3/4!<)! d/4 | %23
w: sper- ta, fi-|den- * * * te ne'-|giu- * ri,|Sè com-|mi- seal- l'a-|
 (_e>!>!c) !>!G/ !>!_E/ | D{F_E} D2 | z z G3/4 G/4 |!f! c C/ z/ G3/4 G/4 |!<(! G ^F G | %28
w: man- * te sle-|a- le;|Fu se-|dot- ta! e l'a-|nel- lo nu-|
 (_A/>_B/) c2- | (c>=B) c/!<)! d/ | (e2 f/) c/ |[Q:1/4=40] (e/d/)"^allarg." (A/ c/) (B/{/e}d/) || %32
w: zia- * le,|_ _ Po- ve-|ret- ta, main-|dar- * no in- vo- *|
"^un poco più mosso" c2 z | z z"^con forza"[Q:1/4=42] E3/4 E/4 | (c/B/) !>!A3/2 E/ | %35
w: cò.|Al- l'in-|fa- * mia dan-|
 (c/>B/) !>!A3/2 G/ | (F/>E/) D z | B2 A |!<(! (A>G) B/ A/ | (c>!<)!B) e3/4 d/4 | (c/>B/) A z | %41
w: na- * ta,al- lo|scher- * no,|No- ve|lu- * ne ge-|mè _ la tra-|di- * ta;|
"^con dolore" E2 E | (F>E) F/ E/ |[Q:1/4=40] (c/"^allarg."B/) (c/^G/) (A/E/) | =G F z | %45
w: Poi, con-|sun- * ta dal|duo- * lo _ la _|vi- ta,|
!<(! (Bc) d!<)! |!>(! e2 d3/4!>)! c/4 | !>!B !>!f/ z/ E/4!fermata!c/ B/4 | A2 z | %49
w: Pre- * gò|ve- niaal cru-|de- le e _ spi-|rò.|
 z z"^con forza" A3/4 A/4 | c _B z/ B/ | =B2 A3/4 B/4 | d c z |!p! G2 G | G2 c3/4 d/4 | %55
w: Ed il|frut- to del|vil tra- di-|men- to|Nel se-|pol- cro po-|
 _e>!>!c !>!G/ !>!_E/ | (D2 !fermata!F/_E/) |"^I. tempo" D[Q:1/4=45] z =E3/4 F/4 | G2 ^F3/4 G/4 | %59
w: so- * gli d'ap-|pres- * *|so; Là non|sor- seu- na|
 A B d/ c/ | c2 G | (A>B) (c/d/) |!<(! e2 f/ e/!<)! | %63
w: cro- ce, un ci-|pres- so,|Non _ un _|sas- soil suo|
[Q:1/4=35] (e/d/)"^allarg." (A/c/) (B/{/e}d/) | c z G/ G/ | A/ G/ z G/ G/ | A/ G/ z G/ e/ | %67
w: no- * me _ por- *|tò Non un|sas- so, u- na|cro- ce il suo|
 (e/d/) (^c/d/) (A/B/) | c2 G/ G/ | A/ G/ z G/ G/ | A/ G/ z G/ c/ | B2- | %72
w: no- * me _ por- *|tò Non un|sas- so, u- na|cro- ce il suo|no-|
[Q:1/4=80] B/c/A/B/c/d/e/!fermata!fdBG !fermata!_A3/4 !fermata!G/4 |[Q:1/4=45] C2 z | z3 | %75
w: * * * * * * * * * * * me por-|tò.||
 z2 !fermata!z |] %76
w: |
V:2
 z [G,CE][G,CE] | z [G,CE][G,CE] | z [G,CE][G,CE] | z [A,CF][A,CF] | z [G,CE][G,CE] | %5
 z [G,CE][G,CE] | z [G,B,F] [G,B,F] | z [G,B,DF] [G,B,DF] | z [G,CE][G,CE] | z [G,CE][G,CE] | %10
 z [G,CE][G,CE] | z [A,CF] [A,CF] | z [G,CE] [G,CE] | z [A,CF][A,CF] | z [G,CE][G,CG] | %15
 z [A,C^F] [B,D=F] | z/ (G,/ [CE]/F,/ [CE]/G,/) | z/ (G,/ [CE]/G,/ [CE]/G,/) | %18
 z/ (D/ [B,G]/D/ [B,G]/D/) | z/ (D/ [C^F]/D/ [CF]/D/) | z/ (D/[B,G]/D/[B,G]/D/) | %21
 z/ (D/ [B,G]/D/ [B,G]/D/) | z/ (G,/ [CG]/G,/ [CG]/G,/) | z/ (G,/ [_EG]/G,/ [EG]/G,/) | %24
 [B,DG] z!f! .[Gg]/.[Gg]/ | .[^G^g]/.[Gg]/ .[Aa]/.[Aa]/ .[Bb]/.[Bb]/ | [c_egc']2 z | %27
 (_D/_E/G/E/D/E/) | (C/_E/_A/E/C/E/) | (C/_E/c/E/C/E/) | (C/=E/G/c/G/E/) | z [A,C^F] [B,D=F] || %32
"_un poco più mosso" z/ [CE]/ z/ [CE]/ z/ [CE]/ | z/ [CEG]/ z/ [CEG]/ z/ [CEG]/ | %34
 z/ [CEA]/ z/ [CEA]/ z/ [CEA]/ | z/ [CFA]/ z/ [CFA]/ z/ [CFA]/ | %36
 z/ [B,DFA]/ z/ [B,DFA]/ z/ [B,DFA]/ | z/ [B,DFA]/ z/ [B,DFA]/ z/ [B,DFA]/ | %38
 z/ [B,DE^G]/ z/ [B,DEG]/ z/ [B,DEG]/ | z/ [B,DEG]/ z/ [B,DEG]/ z/ [B,DEG]/ | %40
 z/ [CEA]/ z/ [CEA]/ z/ [CEA]/ | z/ [CEA]/ z/ [CEA]/ z/ [CEA]/ | z/ [CEA]/ z/ [CEA]/ z/ [CEA]/ | %43
 z/ [CEA]/ z/ [CEA]/ z/ [CEA]/ | z/ [B,DFA]/ z/ [B,DFA]/ z/ [B,DFA]/ | %45
 z/ [B,DFA]/ z/ [B,DFA]/ z/ [B,DFA]/ | z/ [CEA]/ z/ [CEA]/ z/ [CEA]/ | [B,E^G] z !fermata!z | %48
 z/ (.[CEA]/.[CEA]/.[CEA]/.[CEA]/.[CEA]/) | z/ (.[CEA]/.[CEA]/.[CEA]/.[CEA]/.[CEA]/) | %50
 z/ (.[DF_B]/ .[DFB]/.[DFB]/ .[DFB]/[DFB]/) | z/ (.[DF=B]/ .[DFB]/.[DFB]/ .[DFB]/.[DFB]/) | %52
 z/ (.[CGc]/.[CGc]/.[CGc]/.[CGc]/.[CGc]/) | z/ (.[FGB]/.[FGB]/.[FGB]/.[FGB]/.[FGB]/) | %54
 z/ (.[_EGc]/ .[EGc]/.[EGc]/ .[EGc]/.[EGc]/) | z/ (.[_EGc]/ .[EGc]/.[EGc]/ .[EGc]/.[EGc]/) | %56
 [DGB] z !fermata!z | z3 | z [G,CE][G,CE] | z [A,CF][A,CF] | z [G,CE][G,CE] | z [A,CF][A,CF] | %62
 z [G,CE] [G,CG] | z [A,C^F][B,D=F] | [CE]/ [Gg]/[Aa]/[Gg]/ z | z/ ([Gg]/[Aa]/[Gg]/) z | %66
 z/ ([Gg]/[Aa]/[Gg]/) z | [^F-A]2 [FB] | z/ ([Gg]/[Aa]/[Gg]/) z | z/ ([Gg]/[Aa]/[Gg]/) z | %70
 z/ ([Gg]/[Aa]/[Gg]/) z | [FB]2 | x4 x7/2 !fermata!z | !arpeggio![EGc]3 | !arpeggio![EGc]3 | %75
 [EGc]2 !fermata!z |] %76
V:3
 [C,,C,]!p! z z | [C,,C,] z z | [C,,C,] z z | [C,,C,] z z | [C,,C,] z z | [C,,C,] z z | %6
 [D,,D,] z z | [G,,,G,,] z z | [C,,C,] z z | [C,,C,] z z | [C,,C,] z z | [C,,C,] z z | %12
 [C,,C,] z z | [F,,F,] z z | [G,,G,] z z | [G,,,G,,] z z | [C,,C,] z z | [C,,C,] z z | %18
 [G,,G,] z z | [D,,D,] z z | [G,,G,] z z | !>![F,,F,]3 | !>![_E,,_E,]3 | !>![C,,C,]3 | %24
 [G,,G,] z [G,,G,] | [G,DF] [G,DF] [G,DF] | [C,_E,G,C]2 z | [_E,_B,]3 | [_A,,_A,]2 [G,,G,] | %29
 [^F,,^F,]3 | [G,,G,]2 z | [G,,,G,,]2 z || C,/ z/ G,/ z/ E,/ z/ | C,/ z/ E,/ z/ C,/ z/ | %34
 A,,/ z/ C,/ z/ A,,/ z/ | F,,/ z/ A,,/ z/ F,,/ z/ | D,,/ z/ F,,/ z/ D,,/ z/ | %37
 B,,,/ z/ D,,/ z/ B,,,/ z/ | E,,/ z/ B,,/ z/ ^G,,/ z/ | E,,/ z/ ^G,,/ z/ E,,/ z/ | %40
 A,,/ z/ C,/ z/ E,/ z/ | A,/ z/ E,/ z/ C,/ z/ | A,,/ z/ E,/ z/ C,/ z/ | A,,/ z/ C,/ z/ A,,/ z/ | %44
 D,/ z/ A,/ z/ F,/ z/ | D,/ z/ A,/ z/ F,/ z/ | E,/ z/ C,/ z/ A,,/ z/ | E,, z !fermata!z | %48
 [A,,A,] z z | [A,,A,] z z | !>![D,,D,]3 | !>![G,,G,]3 | !>![_E,,_E,]3 | !>![D,,D,]3 | %54
 !>![C,,C,]3 | !>![C,C]3 | [G,,G,] z !fermata!z | z3 | [C,,C,] z z | [C,,C,] z z | [C,,C,] z z | %61
 [F,,F,] z z | [G,,G,] z z | [G,,,G,,] z z | (E,/G,/C/G,/C/G,/) | (F,/G,/B,/G,/B,/G,/) | %66
 (E,/G,/C/G,/C/G,/) | (^F,/A,/F,/A,/)(=F,/G,/) | (C,/G,/C/G,/C/G,/) | (F,/G,/B,/G,/B,/G,/) | %70
 (E,/G,/C/G,/C/G,/) | [G,,D,G,]2 | x4 x7/2 !fermata!z | (C,/E,/G,/C/G,/E,/) | (C,/E,/G,/C/G,/E,/) | %75
 C,2 !fermata!z |] %76
V:4
 x3 | x3 | x3 | x3 | x3 | x3 | x3 | x3 | x3 | x3 | x3 | x3 | x3 | x3 | x3 | x3 | x3 | x3 | x3 | %19
 x3 | x3 | x3 | x3 | x3 | x3 | x3 | x3 | x3 | x3 | x3 | x3 | x3 || x3 | x3 | x3 | x3 | x3 | x3 | %38
 x3 | x3 | x3 | x3 | x3 | x3 | x3 | x3 | x3 | x3 | x3 | x3 | x3 | x3 | x3 | x3 | x3 | x3 | x3 | %57
 x3 | x3 | x3 | x3 | x3 | x3 | x3 | C,3 | C,3 | C,3 | C,2 C, | C,3 | C,3 | C,3 | x2 | x17/2 | x3 | %74
 x3 | x3 |] %76

